Obsidian-SemiLight/actions/16s/edit-download.svg

<svg viewBox="0 0 16 16" xmlns="http://www.w3.org/2000/svg"><path d="m6 2v1 3h1v-3h2v3h1v-3-1h-1-2zm-2.1953125 4-.8046875.8320312 5 5.1679688 5-5.1679688-.804688-.8320312-4.195312 4.337891zm-1.8046875 6v2h1 10 1v-1-1h-1v1h-10v-1z" fill="#4d4d4d"/></svg>

<svg xmlns="http://www.w3.org/2000/svg" viewBox="0 0 16 16">
  <defs id="defs3051">
    <style type="text/css" id="current-color-scheme">
      .ColorScheme-Text {
        color:#4d4d4d;
      }
      </style>
  </defs>
 <path style="fill:currentColor;fill-opacity:1;stroke:none" 
     d="M 6 2 L 6 3 L 6 6 L 7 6 L 7 3 L 9 3 L 9 6 L 10 6 L 10 3 L 10 2 L 9 2 L 7 2 L 6 2 z M 3.8046875 6 L 3 6.8320312 L 8 12 L 13 6.8320312 L 12.195312 6 L 8 10.337891 L 3.8046875 6 z M 2 12 L 2 14 L 3 14 L 13 14 L 14 14 L 14 13 L 14 12 L 13 12 L 13 13 L 3 13 L 3 12 L 2 12 z "
     class="ColorScheme-Text"
     />
</svg>
